!!!OTL: Zerdr&uuml;ck die Tr&auml;ne nicht in deinem Auge (2-6), S. 13
!!!id: K1100
**kern
*clefG2
*k[f#]
*G:
{8d
8g
8a
=1
4.b
8b
8dd
8dd
8cc
8b
=2
4dd
4cc}
8r
=3
{8cc
8b
8cc
=4
4.d
8cc
8b
8cc
8e
8f#
=5
2g}
8r
=6
{8d
8g
8a
=7
4.b
8b
8dd
8dd
8cc
8b
=8
4dd
4cc}
8r
=9
{8cc
8b
8cc
=10
4.d
8cc
8b
8cc
8e
8f#
=11
2g}
8r
=12
{8a
8a
8a
=13
4.a
8a
8b
8a
8g
8e
=14
2d}
8r
=15
{8b
8a
8b
=16
4.a
8a
8a
8a
8b
8cc#
=17
2dd}
8r
=18
{8d
8g
8a
=19
4.b
8b
8dd
8dd
8cc
8b
=20
4a
4ee}
8r
=21
{8cc
8b
8cc
=22
4.d
8cc
8b
8cc
8e
8f#
=23
2g}
8r
=24
{8a
8a
8a
=25
4.a
8a
8b
8a
8g
8e
=26
2d}
8r
=27
{8b
8a
8b
=28
4.a
8a
8a
8a
8b
8cc#
=29
2dd}
8r
=30
{8d
8g
8a
=31
4.b
8b
8dd
8dd
8cc
8b
=32
4a
4ee}
8r
=33
{8cc
8b
8cc
=34
4.d
8cc
8b
8cc
8e
8f#
=35
2g}
8r
==
*-
!!!minrhy: 8
!!!meters: 4/4 ]  ZZ[12
!!!cut: Zerdr&uuml;ck die Tr&auml;ne nicht in deinem Auge (2-6), S. 13
!!!reg: Luxemburg
!!!trd: KINTZELE, Guillaume: An der Ucht, Bd. 2, Luxemburg 1927
!!!rhy1: XXX  X_.XXXXX  X_X_0
!!!rhy2: XXX  X_.XXXXX  X__0
!!!key: K1100  08  G 4/4 ]  ZZ[12
!!!mod: ACHTTONSKALA DUR ?]  AMBITUS[9
!!!kad: 4141-5561-5561
!!!akz: 355_-531_355_-531_23-5_225_352_-531_23-5_225_352_-531_
!!!fot: 'a__b__a__b__c__d__aw_b__c__d__aw_b__
!!!for: 'a__aw_a__aw_aw_aw_a__aw_aw_aw_a__aw_
!!!fok: '/__Wd_/__Wd_\__/__~a_Wd_\__/__~a_Wd_
!! PHRAS[AUFTAKTIG]
!!!fkt: Werbung
!!!bem: in der Quelle mit einer 2. Stimme versehen
!! KINTZELE
!! PR[46] 2K[3] 2G[1] 3K[3] 3G[3] 4A[0] 4Ü[0] 5A[4] 6K[0] 6G[3]
!! 7K[1] 7G[0] 8A[0] MEHR[0] SI[19] ABS[67] SR[4] SP[15]
!! ST[18] 2k[7] 2g[15] 3k[3] 3g[3] 4d[3] 4ü[0] 5d[3] 6k[0] 6g[0]
!! 7k[0] 7g[0] 8d[0] mehr[0] si[34] dm[-15] sr[22] sp[12]
!! 1F[24] 2F[3] 3F[44] 4F[3] LF[0] 2P[24] 3P[3] 4P[0] TRI[0] DF[6] AB[68]
!! TF[0] U3K[0] U3[0] U4[0] U4Ü[0] U5[3] U6K[0] U6[0] U7K[0] U7[3]
!! N1[22] N2K[0] N2[3] N3K[0] N3[21] N4[7] N4Ü[0] N5[31] N6K[0] N6[10]
!!!n7k: 0] N7[0] O1[0] O2K[0] O2[0] O3K[0] O3[0] HÖ[0
!!!RNB: symbol: &auml;      = a umlaut  (UTF-8: Å„)
!!!RNB: symbol: &uuml;  = u umlaut (UTF-8: Ã¼)
